X: 3171
Q: "Strathspey."
M: C
L: 1/8
K: Bb
uF |\
vB>vcud>ue f<d d>uf | g>uab>g f<d d>c |\
|: uf |\
b>ag>f b<f f>d | e>dc>B A<c c>f |\
b>ag>f b<f g>b | f<d c>d B3 :|


